X:1
T:The End Is Not Yet
T:The End Is Not Yet
T:William Edie Marks
T:E. D. Elliott, 1907
T:Public Domain Courtesy of the Cyber Hymnal™
T:Public Domain Courtesy of the Cyber Hymnal™
C:William Edie Marks
Z:Public Domain
Z:Courtesy of the Cyber Hymnal™
%%score ( 1 2 ) ( 3 4 )
L:1/8
Q:1/4=105
M:4/4
K:Ab
V:1 treble 
V:2 treble 
V:3 bass 
V:4 bass 
V:1
 [A,C][B,D] | [CE][Ec][Ec][DB] [DB][CA][CE][EA] | [DA][DG][EG][FA] [GB]2 E[EF] | %3
w: 1.~I have|tried to count His bless- ings, and I|fail to un- der- stand Why the|
w: 2.~Like an|ar- my I be- hold them pass be-|fore me in re- view, O what|
w: 3.~Sure- ly|good- ness, love and mer- cy have been|mine a- long life’s way, And my|
 ([EG][FA])[GB][Ac] [Bd]2 [Ac]>[GB] | [Ac]6 A[AB] | [Ac][Ae][Ae][Ec] [DB][CA]EE | %6
w: Lord * should so rich- ly re-|ward; Could I|count the stars of heav- en, add to|
w: joy * doth the sight now af-|ford! Tho’ they|may be long in pass- ing, still they|
w: weak * heart to strength is re-|stored; And my|cup of joy and glad- ness keeps o’er-|
 [DF][DF][FA][FA] [Fd]2 [DF][DF] | ([CE][DF])[EG][EA] [Ec]2 [DB]>[DB] | [CA]6 || %9
w: them earth’s grains of sand, Still His|bless- * ings are more, praise the|Lord!|
w: come, bat- tal- ions new, And the|end * is not yet, praise the|Lord!|
w: flow- ing, day by day, And the|end * is not yet, praise the|Lord!|
"^Refrain" [A,C][B,D] | ([CE][Ec])[Ec][Ec] [Ec]2 [CA]>[DF] | E6 [CE][CE] | %12
w: And the|end * is not yet, praise the|Lord, And the|
w: |||
w: |||
 (EF)[EG][FA] [GB]2 [Gd]>[Gd] | c6 [Ec][Ec] | [=Ec][Ed][Ec][EG] [GB][FA][FA][FA] | %15
w: end * is not yet, praise the|Lord; Bless- ings|new He’s still be- stow- ing, And my|
w: |||
w: |||
 [=DB][Dc][DB][DF] [_DA][EG][DF][DE] | ([CE][DF])[EG][EA] [Ac]2 [GB]>[GB] | z x10 |] %18
w: cup is o- ver- flow- ing, And the|end * is not yet, praise the||
w: |||
w: |||
V:2
 x2 | x8 | x6 E x | x8 | x6 A x | x6 EE | x8 | x8 | x6 || x2 | x8 | (C2 DD E2) x2 | B,2 x6 | %13
 (AAAA A2) x2 | x8 | x8 | x8 | A6 EF>F E2 |] %18
V:3
 [A,,E,][A,,E,] | [A,,E,][A,,A,][A,,A,][A,,A,] [A,,E,][A,,E,][A,,A,][A,,C] | %2
w: ~ ~|~ ~ ~ ~ ~ ~ ~ ~|
 [E,B,][E,B,][E,B,][E,B,] [E,B,]2 [E,G,][E,A,] | [E,B,]2 [E,E][E,E] [E,E]2 [E,E]>[E,E] | %4
w: ~ ~ ~ ~ ~ ~ ~|~ ~ ~ ~ ~ ~|
 [A,E]6 [A,C][A,D] | [A,E][A,C][A,C]A, A,A,[C,A,][C,A,] | %6
w: ~ ~ ~|~ ~ ~ ~ ~ ~ ~ ~|
 [D,A,][D,A,][D,A,][D,A,] [D,A,]2 [D,A,][D,A,] | [E,A,]2 [E,B,][E,C] [E,A,]2 [E,G,]>[E,G,] | %8
w: ~ ~ ~ ~ ~ ~ ~|~ ~ ~ ~ ~ ~|
 [A,,A,]6 || [A,,E,][A,,E,] | [A,,A,]2 [A,,A,][A,,A,] [A,,A,]2 [A,,A,]>[A,,A,] | %11
w: ~|~ ~|~ ~ ~ ~ ~ ~|
 [A,,A,]2 [B,,G,][B,,G,] [C,A,]2 [A,,A,][A,,A,] | (G,A,)[E,B,][E,B,] [E,E]2 [E,E]>[E,E] | %13
w: ~ praise the Lord, ~ ~|~ * ~ ~ ~ ~ ~|
 E6 [A,,A,][A,,A,] | [C,G,][C,G,][C,G,][C,C] [F,C][F,C][F,C][F,C] | %15
w: O praise the|Lord, ~ ~ ~ ~ ~ ~ ~|
 [B,,A,][B,,A,][B,,F,][B,,B,] [E,B,][E,B,][F,A,][G,B,] | A,2 [A,B,][A,C] [E,E]2 [E,D]>[E,D] | %17
w: ~ ~ ~ ~ ~ ~ ~ ~|~ ~ ~ ~ ~ ~|
 CCD>D C2 x5 |] %18
w: ~ ~ ~ ~ ~|
V:4
 x2 | x8 | x8 | x8 | x8 | x3 A, A,A, x2 | x8 | x8 | x6 || x2 | x8 | x8 | E,2 x6 | %13
 A,A,E,C, A,,2 x2 | x8 | x8 | A,2 x6 | A,,6 x5 |] %18

